projects/flag-game/flags/Macau.svg

<svg viewBox="0 0 1000 667" xmlns="http://www.w3.org/2000/svg" xmlns:xlink="http://www.w3.org/1999/xlink"><clipPath id="a"><path d="m0 0h1000v666.71875h-1000zm0 0"/></clipPath><g clip-path="url(#a)"><path d="m0 666.667969v-666.667969h1000v666.667969zm0 0" fill="#00785e" fill-rule="evenodd"/></g><g fill-rule="evenodd"><path d="m500 125.695312-8.210938 25.316407h-26.628906l21.539063 15.648437-8.226563 25.300782 21.527344-15.625 21.527344 15.625-8.226563-25.300782 21.539063-15.648437h-26.628906zm-105.054688 44.410157 5.394532 17.609375-15.09375 10.558594 18.40625.324218 5.386718 17.613282 6-17.414063 18.414063.3125-14.699219-11.078125 5.984375-17.414062-15.09375 10.566406zm210.109376 0-14.699219 11.078125-15.09375-10.566406 5.984375 17.414062-14.699219 11.078125 18.414063-.3125 6 17.414063 5.386718-17.613282 18.40625-.324218-15.09375-10.558594zm-245 58.179687-7.773438 16.691406-18.277344-2.25 13.46875 12.554688-7.785156 16.699219 16.105469-8.929688 13.464843 12.554688-3.507812-18.074219 16.09375-8.929688-18.265625-2.234374zm279.890624 0-3.523437 18.082032-18.265625 2.234374 16.09375 8.929688-3.507812 18.074219 13.464843-12.554688 16.105469 8.929688-7.785156-16.699219 13.46875-12.554688-18.277344 2.25zm0 0" fill="#fbd116"/><path d="m500 213.335938c-23.910156 20.667968-39.0625 51.210937-39.0625 85.277343 0 23.164063 7.003906 44.707031 19.011719 62.617188-14.742188-19.046875-23.523438-42.9375-23.523438-68.867188 0-17.226562 3.875-33.550781 10.792969-48.15625-4.78125-5.054687-8.410156-11.203125-10.460938-18.035156-9.269531 16.371094-14.566406 35.28125-14.566406 55.425781 0 25.058594 8.1875 48.207032 22.046875 66.925782-24.125-25.289063-58.152343-41.0625-95.835937-41.0625-2.023438 0-4.039063.050781-6.046875.148437 3.796875 3.527344 6.976562 7.707031 9.382812 12.355469 37.484375.058594 71.324219 15.722656 95.390625 40.832031-22.984375-19.199219-52.570312-30.761719-84.832031-30.761719-18.039063 0-35.234375 3.609375-50.910156 10.140625 16.109375 42.554688 57.246093 72.84375 105.417969 72.84375 3.121093 0 6.214843-.140625 9.269531-.394531-6.503907 1.171875-13.199219 1.785156-20.035157 1.785156-30.390624 0-57.976562-12.058594-78.25-31.640625-4.226562 1.625-8.75 2.640625-13.472656 2.921875 20.65625 23.355469 50.832032 38.09375 84.4375 38.09375 31.914063 0 60.738282-13.296875 81.246094-34.648437 20.507812 21.351562 49.332031 34.648437 81.246094 34.648437 33.605468 0 63.78125-14.738281 84.4375-38.09375-4.722656-.28125-9.246094-1.296875-13.472656-2.921875-20.273438 19.582031-47.859376 31.640625-78.25 31.640625-6.835938 0-13.53125-.613281-20.035157-1.785156 3.054688.253906 6.148438.394531 9.269531.394531 48.171876 0 89.308594-30.289062 105.417969-72.84375-15.675781-6.53125-32.871093-10.140625-50.910156-10.140625-32.261719 0-61.847656 11.5625-84.832031 30.761719 24.066406-25.109375 57.90625-40.773437 95.390625-40.832031 2.40625-4.648438 5.585937-8.828125 9.382812-12.355469-2.007812-.097656-4.023437-.148437-6.046875-.148437-37.683594 0-71.710937 15.773437-95.835937 41.0625 13.859375-18.71875 22.046875-41.867188 22.046875-66.925782 0-20.144531-5.296875-39.054687-14.566406-55.425781-2.050782 6.832031-5.679688 12.980469-10.460938 18.035156 6.917969 14.605469 10.792969 30.929688 10.792969 48.15625 0 25.929688-8.78125 49.820313-23.523438 68.867188 12.007813-17.910157 19.011719-39.453125 19.011719-62.617188 0-34.066406-15.152344-64.609375-39.0625-85.277343zm0 187.957031c-20.226562 19.308593-47.625 31.167969-77.777344 31.167969h-87.683594c2.582032 3.804687 5.289063 7.511718 8.125 11.113281h84.769532c27.636718 0 52.953125-9.972657 72.566406-26.507813 19.613281 16.535156 44.929688 26.507813 72.566406 26.507813h84.769532c2.835937-3.601563 5.542968-7.308594 8.125-11.113281h-87.683594c-30.152344 0-57.550782-11.859376-77.777344-31.167969zm-147.617188 53.742187c1.726563 1.886719 3.492188 3.734375 5.292969 5.554688h284.648438c1.800781-1.820313 3.566406-3.667969 5.292969-5.554688zm17.570313 17.015625c3.523437 3.011719 7.140625 5.910157 10.859375 8.675781h238.375c3.71875-2.765624 7.335938-5.664062 10.859375-8.675781zm23.527344 17.363281c6.453125 4.070313 13.140625 7.78125 20.066406 11.101563h172.90625c6.925781-3.320313 13.613281-7.03125 20.066406-11.101563zm32.761719 16.660157c22.820312 9.078125 47.707031 14.0625 73.757812 14.0625s50.9375-4.984375 73.757812-14.0625zm0 0" fill="#fff"/></g></svg>

<?xml version="1.0" encoding="UTF-8"?>
<svg xmlns="http://www.w3.org/2000/svg" xmlns:xlink="http://www.w3.org/1999/xlink" viewBox="0 0 1000 667" version="1.1">
<defs>
<clipPath id="clip1">
  <path d="M 0 0 L 1000 0 L 1000 666.71875 L 0 666.71875 Z M 0 0 "/>
</clipPath>
</defs>
<g id="surface715">
<g clip-path="url(#clip1)" clip-rule="nonzero">
<path style=" stroke:none;fill-rule:evenodd;fill:rgb(0%,47.058105%,36.862183%);fill-opacity:1;" d="M 0 666.667969 L 0 0 L 1000 0 L 1000 666.667969 Z M 0 666.667969 "/>
</g>
<path style=" stroke:none;fill-rule:evenodd;fill:rgb(98.429871%,81.959534%,8.627319%);fill-opacity:1;" d="M 500 125.695312 L 491.789062 151.011719 L 465.160156 151.011719 L 486.699219 166.660156 L 478.472656 191.960938 L 500 176.335938 L 521.527344 191.960938 L 513.300781 166.660156 L 534.839844 151.011719 L 508.210938 151.011719 Z M 394.945312 170.105469 L 400.339844 187.714844 L 385.246094 198.273438 L 403.652344 198.597656 L 409.039062 216.210938 L 415.039062 198.796875 L 433.453125 199.109375 L 418.753906 188.03125 L 424.738281 170.617188 L 409.644531 181.183594 Z M 605.054688 170.105469 L 590.355469 181.183594 L 575.261719 170.617188 L 581.246094 188.03125 L 566.546875 199.109375 L 584.960938 198.796875 L 590.960938 216.210938 L 596.347656 198.597656 L 614.753906 198.273438 L 599.660156 187.714844 Z M 360.054688 228.285156 L 352.28125 244.976562 L 334.003906 242.726562 L 347.472656 255.28125 L 339.6875 271.980469 L 355.792969 263.050781 L 369.257812 275.605469 L 365.75 257.53125 L 381.84375 248.601562 L 363.578125 246.367188 Z M 639.945312 228.285156 L 636.421875 246.367188 L 618.15625 248.601562 L 634.25 257.53125 L 630.742188 275.605469 L 644.207031 263.050781 L 660.3125 271.980469 L 652.527344 255.28125 L 665.996094 242.726562 L 647.71875 244.976562 Z M 639.945312 228.285156 "/>
<path style=" stroke:none;fill-rule:evenodd;fill:rgb(99.998474%,99.998474%,99.998474%);fill-opacity:1;" d="M 500 213.335938 C 476.089844 234.003906 460.9375 264.546875 460.9375 298.613281 C 460.9375 321.777344 467.941406 343.320312 479.949219 361.230469 C 465.207031 342.183594 456.425781 318.292969 456.425781 292.363281 C 456.425781 275.136719 460.300781 258.8125 467.21875 244.207031 C 462.4375 239.152344 458.808594 233.003906 456.757812 226.171875 C 447.488281 242.542969 442.191406 261.453125 442.191406 281.597656 C 442.191406 306.65625 450.378906 329.804688 464.238281 348.523438 C 440.113281 323.234375 406.085938 307.460938 368.402344 307.460938 C 366.378906 307.460938 364.363281 307.511719 362.355469 307.609375 C 366.152344 311.136719 369.332031 315.316406 371.738281 319.964844 C 409.222656 320.023438 443.0625 335.6875 467.128906 360.796875 C 444.144531 341.597656 414.558594 330.035156 382.296875 330.035156 C 364.257812 330.035156 347.0625 333.644531 331.386719 340.175781 C 347.496094 382.730469 388.632812 413.019531 436.804688 413.019531 C 439.925781 413.019531 443.019531 412.878906 446.074219 412.625 C 439.570312 413.796875 432.875 414.410156 426.039062 414.410156 C 395.648438 414.410156 368.0625 402.351562 347.789062 382.769531 C 343.5625 384.394531 339.039062 385.410156 334.316406 385.691406 C 354.972656 409.046875 385.148438 423.785156 418.753906 423.785156 C 450.667969 423.785156 479.492188 410.488281 500 389.136719 C 520.507812 410.488281 549.332031 423.785156 581.246094 423.785156 C 614.851562 423.785156 645.027344 409.046875 665.683594 385.691406 C 660.960938 385.410156 656.4375 384.394531 652.210938 382.769531 C 631.9375 402.351562 604.351562 414.410156 573.960938 414.410156 C 567.125 414.410156 560.429688 413.796875 553.925781 412.625 C 556.980469 412.878906 560.074219 413.019531 563.195312 413.019531 C 611.367188 413.019531 652.503906 382.730469 668.613281 340.175781 C 652.9375 333.644531 635.742188 330.035156 617.703125 330.035156 C 585.441406 330.035156 555.855469 341.597656 532.871094 360.796875 C 556.9375 335.6875 590.777344 320.023438 628.261719 319.964844 C 630.667969 315.316406 633.847656 311.136719 637.644531 307.609375 C 635.636719 307.511719 633.621094 307.460938 631.597656 307.460938 C 593.914062 307.460938 559.886719 323.234375 535.761719 348.523438 C 549.621094 329.804688 557.808594 306.65625 557.808594 281.597656 C 557.808594 261.453125 552.511719 242.542969 543.242188 226.171875 C 541.191406 233.003906 537.5625 239.152344 532.78125 244.207031 C 539.699219 258.8125 543.574219 275.136719 543.574219 292.363281 C 543.574219 318.292969 534.792969 342.183594 520.050781 361.230469 C 532.058594 343.320312 539.0625 321.777344 539.0625 298.613281 C 539.0625 264.546875 523.910156 234.003906 500 213.335938 Z M 500 401.292969 C 479.773438 420.601562 452.375 432.460938 422.222656 432.460938 L 334.539062 432.460938 C 337.121094 436.265625 339.828125 439.972656 342.664062 443.574219 L 427.433594 443.574219 C 455.070312 443.574219 480.386719 433.601562 500 417.066406 C 519.613281 433.601562 544.929688 443.574219 572.566406 443.574219 L 657.335938 443.574219 C 660.171875 439.972656 662.878906 436.265625 665.460938 432.460938 L 577.777344 432.460938 C 547.625 432.460938 520.226562 420.601562 500 401.292969 Z M 352.382812 455.035156 C 354.109375 456.921875 355.875 458.769531 357.675781 460.589844 L 642.324219 460.589844 C 644.125 458.769531 645.890625 456.921875 647.617188 455.035156 Z M 369.953125 472.050781 C 373.476562 475.0625 377.09375 477.960938 380.8125 480.726562 L 619.1875 480.726562 C 622.90625 477.960938 626.523438 475.0625 630.046875 472.050781 Z M 393.480469 489.414062 C 399.933594 493.484375 406.621094 497.195312 413.546875 500.515625 L 586.453125 500.515625 C 593.378906 497.195312 600.066406 493.484375 606.519531 489.414062 Z M 426.242188 506.074219 C 449.0625 515.152344 473.949219 520.136719 500 520.136719 C 526.050781 520.136719 550.9375 515.152344 573.757812 506.074219 Z M 426.242188 506.074219 "/>
</g>
</svg>
